X:62
T:Hiudai Gallagher's March
Z: id:dc-jig-174
M:6/8
L:1/8
K:A Mixolydian
ed|cBA ecA|fed cBA|def gfg|BcB Bed|!
cBA ecA|fed cBA|c2c dBe|ABA A:|!
fg|agf gfe|fed cBA|def gfg|BcB Bfg|!
agf gfe|fed cBA|c2c dBe|ABA A:|!